dist/svgs/carbon-icons/svg/help-glyph.svg

<svg xmlns="http://www.w3.org/2000/svg" fill-rule="evenodd" viewBox="0 0 16 16"><path d="M8 0C3.6 0 0 3.6 0 8s3.6 8 8 8 8-3.6 8-8-3.6-8-8-8zm.9 13H7v-1.8h1.9V13zm-.1-3.6v.5H7.1v-.6c.2-2.1 2-1.9 1.9-3.2.1-.7-.3-1.1-1-1.1-.8 0-1.2.7-1.2 1.6H5c0-1.7 1.2-3 2.9-3 2.3 0 3 1.4 3 2.3.1 2.3-1.9 2-2.1 3.5z"/></svg>

<svg width="16px" height="16px" viewBox="0 0 16 16" version="1.1" xmlns="http://www.w3.org/2000/svg" xmlns:xlink="http://www.w3.org/1999/xlink" fill-rule="evenodd">
	<path d="M8,0 C3.6,0 0,3.6 0,8 C0,12.4 3.6,16 8,16 C12.4,16 16,12.4 16,8 C16,3.6 12.4,0 8,0 L8,0 Z M8.9,13 L7,13 L7,11.2 L8.9,11.2 L8.9,13 L8.9,13 Z M8.8,9.4 L8.8,9.9 L7.1,9.9 L7.1,9.3 C7.3,7.2 9.1,7.4 9,6.1 C9.1,5.4 8.7,5 8,5 C7.2,5 6.8,5.7 6.8,6.6 L5,6.6 C5,4.9 6.2,3.6 7.9,3.6 C10.2,3.6 10.9,5 10.9,5.9 C11,8.2 9,7.9 8.8,9.4 L8.8,9.4 Z" id="Shape" fill="#231F20"></path>
</svg>
